images/cig.svg

<svg height="250" viewBox="0 0 250 250" width="250" xmlns="http://www.w3.org/2000/svg" xmlns:xlink="http://www.w3.org/1999/xlink"><linearGradient id="a" gradientUnits="userSpaceOnUse" x1="124.99995" x2="124.99995" y1="0" y2="249.9999"><stop offset="0" stop-color="#f08710"/><stop offset="1" stop-color="#f96d36"/></linearGradient><linearGradient id="b" gradientUnits="userSpaceOnUse" x1="124.99995" x2="124.99995" y1="8.33333" y2="241.66657"><stop offset="0" stop-color="#f0870d"/><stop offset="1" stop-color="#f09a39"/></linearGradient><path d="m250 125c0 69.035156-55.964844 125-125 125s-125-55.964844-125-125 55.964844-125 125-125 125 55.964844 125 125zm0 0" fill="url(#a)"/><path d="m241.667969 125c0 64.433594-52.234375 116.667969-116.667969 116.667969s-116.667969-52.234375-116.667969-116.667969 52.234375-116.667969 116.667969-116.667969 116.667969 52.234375 116.667969 116.667969zm0 0" fill="url(#b)"/><path d="m63.332031 151.667969h109.167969v18.332031h-109.167969zm0 0"/><path d="m63.332031 170h90v18.332031h-90zm0 0" fill="#fff"/><path d="m153.332031 170h19.167969v18.332031h-19.167969zm0 0" fill="#e25b26"/><path d="m63.332031 188.332031h109.167969v18.335938h-109.167969zm0 0"/><path d="m172.5 170h20v18.332031h-20zm0 0"/><path d="m153.332031 21.667969h17.5v110h-17.5zm0 0" fill="#fcf7d6"/></svg>

<svg xmlns="http://www.w3.org/2000/svg" xmlns:xlink="http://www.w3.org/1999/xlink" width="250px" height="250px" viewBox="0 0 250 250" version="1.1">
<defs>
<linearGradient id="linear0" gradientUnits="userSpaceOnUse" x1="150" y1="0" x2="150" y2="300" gradientTransform="matrix(0.833333,0,0,0.833333,0,0)">
<stop offset="0" style="stop-color:rgb(94.117647%,52.941179%,6.27451%);stop-opacity:1;"/>
<stop offset="1" style="stop-color:rgb(97.647059%,42.745098%,21.176471%);stop-opacity:1;"/>
</linearGradient>
<linearGradient id="linear1" gradientUnits="userSpaceOnUse" x1="150" y1="10" x2="150" y2="290" gradientTransform="matrix(0.833333,0,0,0.833333,0,0)">
<stop offset="0" style="stop-color:rgb(94.117647%,52.941179%,5.098039%);stop-opacity:1;"/>
<stop offset="1" style="stop-color:rgb(94.117647%,60.392159%,22.352941%);stop-opacity:1;"/>
</linearGradient>
</defs>
<g id="surface1">
<path style=" stroke:none;fill-rule:nonzero;fill:url(#linear0);" d="M 250 125 C 250 194.035156 194.035156 250 125 250 C 55.964844 250 0 194.035156 0 125 C 0 55.964844 55.964844 0 125 0 C 194.035156 0 250 55.964844 250 125 Z M 250 125 "/>
<path style=" stroke:none;fill-rule:nonzero;fill:url(#linear1);" d="M 241.667969 125 C 241.667969 189.433594 189.433594 241.667969 125 241.667969 C 60.566406 241.667969 8.332031 189.433594 8.332031 125 C 8.332031 60.566406 60.566406 8.332031 125 8.332031 C 189.433594 8.332031 241.667969 60.566406 241.667969 125 Z M 241.667969 125 "/>
<path style=" stroke:none;fill-rule:nonzero;fill:rgb(0%,0%,0%);fill-opacity:1;" d="M 63.332031 151.667969 L 172.5 151.667969 L 172.5 170 L 63.332031 170 Z M 63.332031 151.667969 "/>
<path style=" stroke:none;fill-rule:nonzero;fill:rgb(100%,100%,100%);fill-opacity:1;" d="M 63.332031 170 L 153.332031 170 L 153.332031 188.332031 L 63.332031 188.332031 Z M 63.332031 170 "/>
<path style=" stroke:none;fill-rule:nonzero;fill:rgb(88.627452%,35.686275%,14.901961%);fill-opacity:1;" d="M 153.332031 170 L 172.5 170 L 172.5 188.332031 L 153.332031 188.332031 Z M 153.332031 170 "/>
<path style=" stroke:none;fill-rule:nonzero;fill:rgb(0%,0%,0%);fill-opacity:1;" d="M 63.332031 188.332031 L 172.5 188.332031 L 172.5 206.667969 L 63.332031 206.667969 Z M 63.332031 188.332031 "/>
<path style=" stroke:none;fill-rule:nonzero;fill:rgb(0%,0%,0%);fill-opacity:1;" d="M 172.5 170 L 192.5 170 L 192.5 188.332031 L 172.5 188.332031 Z M 172.5 170 "/>
<path style=" stroke:none;fill-rule:nonzero;fill:rgb(98.823529%,96.862745%,83.92157%);fill-opacity:1;" d="M 153.332031 21.667969 L 170.832031 21.667969 L 170.832031 131.667969 L 153.332031 131.667969 Z M 153.332031 21.667969 "/>
</g>
</svg>
